X:1
T:Praise the Lord Who Reigns Above
T:Praise the Lord Who Reigns Above
%%score ( 1 2 ) ( 3 4 )
L:1/8
M:4/4
K:F
V:1 treble nm="Piano" snm="Pno."
V:2 treble 
V:3 bass nm="Piano" snm="Pno."
V:4 bass 
V:1
 [CF]2 C2 [DF]2 [EG]2 | [FA]2 [EG]2 AB [Fc]2 | [Fd]2 c2 B2 [FA]2 | [EG]8 | [CF]2 C2 [DF]2 [EG]2 | %5
w: 1~Praise the Lord who|reigns a- bove _ and|keeps his court be-|low;|praise the ho- ly|
w: 2~Ce- le- brate th'et-|er- nal God _ with|harp and psal- te-|ry,|tim- brels soft and|
w: 3~God, in whom they|move and live, _ let|ev- ery crea- tyre|sing,|glo- ry to their|
 [FA]2 [EG]2 AB [Fc]2 | [Fd]2 [Fc]2 B2 [FA]2 | [EG]8 | [Fc]2 [Fd]2 [Fc]2 [Fd]2 | %9
w: God of love, _ and|all his great- ness|show;|praise him for his|
w: cym- bals loud _ in|this high praise a-|gree;|praise him, ev- ery|
w: Ma- ker give, _ and|ho- mage to their|King.|Hallow- ed be his|
 [Fc]2 [GB][FA] [EG]4 | [FA]2 GA [EB]2 [FA]2 | [EG][DF] [EG][FA] [EG]4 | [CF]2 C2 [DF]2 [EG]2 | %13
w: no- ble _ deeds,|praise him _ for his|match- * less _ power;|him from whom all|
w: tune- ful * string;|all the * reach of|heaven- * ly _ art,|all the powers of|
w: name be- * neath,|as in _ heaven on|earth _ a- * dored;|praise the Lord in|
 [FA]2 [EG]2 AB [Fc]2 | [Fd]2 [Fc][GB] [FA]2 [EG]2 | [FF]8 |] %16
w: good pro- ceeds _ let|earth and _ heaven a-|dore.|
w: mu- sic bring, _ the|mus- sic _ of the|heart.|
w: ev- ery breath, _ Let|all things _ praise the|Lord.|
V:2
 x2 C2 x4 | x4 F2 x2 | x4 DE x2 | x8 | x2 C2 x4 | x4 F2 x2 | x4 DE x2 | x8 | x8 | x8 | x2 GF x4 | %11
 x8 | x2 C2 x4 | x4 F2 x2 | x8 | x8 |] %16
V:3
 [F,A,]2 [E,G,]2 [D,A,]2 [C,C]2 | [F,C]2 [C,C]2 C2 [A,C]2 | B,2 [A,C]2 [G,C]2 [F,C]2 | [C,C]8 | %4
 [F,A,]2 [E,G,]2 [D,A,]2 [C,C]2 | [F,C]2 [C,C]2 C2 [A,C]2 | B,2 [A,C]2 [G,C]2 [F,C]2 | [C,C]8 | %8
 [A,,C]2 [B,,B,]2 [F,A,]2 B,2 | [A,C]2 C2 [C,C]4 | [F,C]2 C2 [G,C]2 [F,C]2 | %11
 [C,C]2 [C,C]2 (C2 B,2) | [F,A,]2 [E,G,]2 [D,A,]2 [C,C]2 | [F,C]2 [C,C]2 C2 [A,,C]2 | %14
 [B,,B,]2 [A,,C][B,,D] [C,C]2 [C,B,]2 | [F,A,]8 |] %16
V:4
 x8 | x4 F,G, x2 | B,2 x6 | x8 | x8 | x4 F,G, x2 | B,2 x6 | x8 | x6 B,2 | x2 E,F, x4 | x2 E,F, x4 | %11
 x4 C,4 | x8 | x4 F,,G,, x2 | x8 | x8 |] %16

